assets/Keycap 6/Flat/keycap_6_flat.svg

<svg width="32" height="32" viewBox="0 0 32 32" fill="none" xmlns="http://www.w3.org/2000/svg">
<path d="M2 6C2 3.79086 3.79086 2 6 2H26C28.2091 2 30 3.79086 30 6V26C30 28.2091 28.2091 30 26 30H6C3.79086 30 2 28.2091 2 26V6Z" fill="#00A6ED"/>
<path d="M19.1169 10.6178C19.6221 9.79387 19.3637 8.71639 18.5397 8.21121C17.7157 7.70604 16.6383 7.96446 16.1331 8.78842L11.6018 16.179C11.5258 16.3031 11.467 16.433 11.4249 16.5657C11.0925 17.2548 10.9062 18.0275 10.9062 18.8438C10.9062 21.7432 13.2568 24.0938 16.1562 24.0938C19.0557 24.0938 21.4062 21.7432 21.4062 18.8438C21.4062 16.3107 19.6123 14.1966 17.2256 13.7027L19.1169 10.6178ZM14.4062 18.8438C14.4062 17.8773 15.1898 17.0938 16.1562 17.0938C17.1227 17.0938 17.9062 17.8773 17.9062 18.8438C17.9062 19.8102 17.1227 20.5938 16.1562 20.5938C15.1898 20.5938 14.4062 19.8102 14.4062 18.8438Z" fill="white"/>
</svg>

<svg xmlns="http://www.w3.org/2000/svg" width="32" height="32" fill="none"><path fill="#00A6ED" d="M2 6a4 4 0 0 1 4-4h20a4 4 0 0 1 4 4v20a4 4 0 0 1-4 4H6a4 4 0 0 1-4-4V6Z"/><path fill="#fff" d="M19.117 10.618a1.75 1.75 0 1 0-2.984-1.83l-4.531 7.391a1.758 1.758 0 0 0-.177.387 5.25 5.25 0 1 0 5.8-2.863l1.892-3.085Zm-4.71 8.226a1.75 1.75 0 1 1 3.5 0 1.75 1.75 0 0 1-3.5 0Z"/></svg>
